communes/298.svg

<?xml version="1.0" encoding="UTF-8" standalone="no"?>
<svg
   xmlns:dc="http://purl.org/dc/elements/1.1/"
   xmlns:cc="http://creativecommons.org/ns#"
   xmlns:rdf="http://www.w3.org/1999/02/22-rdf-syntax-ns#"
   xmlns:svg="http://www.w3.org/2000/svg"
   xmlns="http://www.w3.org/2000/svg"
   xmlns:sodipodi="http://sodipodi.sourceforge.net/DTD/sodipodi-0.dtd"
   xmlns:inkscape="http://www.inkscape.org/namespaces/inkscape"
   version="1.0"
   width="244.9489"
   height="286.9194"
   id="svg2780"
   sodipodi:docname="298.svg">
  <metadata
     id="metadata9">
    <rdf:RDF>
      <cc:Work
         rdf:about="">
        <dc:format>image/svg+xml</dc:format>
        <dc:type
           rdf:resource="http://purl.org/dc/dcmitype/StillImage" />
      </cc:Work>
    </rdf:RDF>
  </metadata>
  <sodipodi:namedview
     pagecolor="#ffffff"
     bordercolor="#666666"
     borderopacity="1"
     objecttolerance="10"
     gridtolerance="10"
     guidetolerance="10"
     inkscape:pageopacity="0"
     inkscape:pageshadow="2"
     inkscape:window-width="640"
     inkscape:window-height="480"
     id="namedview7" />
  <defs
     id="defs2782" />
  <g
     transform="translate(0,-790.07284)"
     id="layer1">
    <path
       d="M 0.99999994,791.07284 L 5.4172481,976.6018 C 8.572417,1109.1224 236.37647,1109.1224 239.53165,976.6018 L 243.9489,791.07284 L 0.99999994,791.07284 z"
       id="path3282"
       style="fill:#ffffff;fill-opacity:1;fill-rule:evenodd;stroke:#000000;stroke-width:1.99999988;stroke-linecap:butt;stroke-miterlimit:4;stroke-dashoffset:0;stroke-opacity:1" />
    <path
       d="M 29.835275,1027.4249 C 56.85841,1015.2223 85.516297,1010.5647 121.10567,1037.8985 C 147.51267,1018.3018 176.93529,1010.5521 212.62544,1027.4249 C 139.89722,935.18279 153.93031,836.8404 198.68697,850.02988 C 220.78634,856.54241 203.61858,899.88439 178.21201,869.32264 C 174.04673,874.36959 173.55645,879.84151 177.18426,885.63516 C 180.94117,891.63498 186.32799,889.25673 189.36074,891.04832 C 192.39349,892.83991 192.49546,896.89666 200.55745,897.00301 C 208.79574,897.11168 209.41779,890.32687 212.87481,888.77371 C 216.2628,887.25156 218.3461,891.10998 223.7867,885.63516 C 229.31477,880.07233 227.00578,873.58986 227.72135,871.00774 C 228.39164,868.58895 231.94763,868.46106 232.47195,861.69538 C 232.9954,854.94101 227.53309,852.87759 226.59031,850.12095 C 225.70133,847.52161 229.38692,842.4147 226.59031,837.90168 C 223.84149,833.46579 217.01984,832.29968 214.62042,830.4205 C 212.32869,828.62568 212.19715,824.35283 204.88235,822.04722 C 197.51525,819.72512 194.29443,823.26346 191.17939,823.1887 C 188.24058,823.11816 183.28389,818.3291 176.21196,819.62444 C 169.31056,820.88855 167.09409,828.29215 164.24714,830.06784 C 161.27219,831.92336 153.43939,829.90716 148.78603,835.40796 C 144.21902,840.80667 146.57129,846.03935 144.9724,848.98991 C 143.4118,851.86982 138.74724,851.73344 134.34014,858.37531 C 129.98618,864.93708 134.69853,873.3048 133.5743,878.30006 C 132.45007,883.29532 127.58587,885.26716 126.65237,892.91336 C 125.71603,900.58275 129.68334,905.78527 129.55408,909.75127 C 129.41908,913.89342 123.71088,918.74794 124.0251,929.05177 C 124.33943,939.35946 133.73117,944.1233 132.75314,950.41674 C 131.77059,956.73928 125.05177,963.44033 128.17887,973.47783 C 131.25593,983.35473 131.10433,995.06263 119.35936,992.33643 C 107.44701,989.57133 116.52119,971.64083 121.58669,961.31393 C 126.68665,950.91687 117.37024,935.11815 117.08545,928.34644 C 116.80066,921.57473 121.44873,913.37929 120.82604,907.30033 C 120.20335,901.22136 115.17397,894.79233 114.44565,888.85928 C 113.71733,882.92623 118.28892,875.19683 116.48341,868.01527 C 114.66695,860.79011 109.50074,861.46165 107.46321,857.48029 C 105.42568,853.49893 106.14493,846.17972 102.41525,841.90418 C 98.760723,837.71479 92.646763,838.12888 89.185963,835.43821 C 85.833987,832.83214 85.530257,826.92562 80.049947,824.07036 C 74.430477,821.1426 70.697423,824.50588 66.596351,824.21644 C 62.495279,823.927 57.056449,819.29488 50.785553,821.47334 C 44.357079,823.70655 45.063406,828.11527 42.303909,829.42301 C 39.687516,830.66294 35.484295,826.35151 28.180428,831.3147 C 20.75639,836.35955 24.758851,841.29025 23.102213,843.38788 C 21.510998,845.40268 17.330125,845.20215 13.716814,851.38034 C 10.149263,857.48029 15.120386,863.00989 15.881481,866.33017 C 16.650409,869.68462 12.155787,875.74498 15.881481,881.79127 C 19.479772,887.63081 24.996079,885.34237 28.19296,887.48406 C 31.389841,889.62575 30.573289,893.36428 38.052042,895.93248 C 45.424225,898.46407 49.168811,892.87361 52.528188,891.51681 C 55.735403,890.22146 60.497085,893.05418 65.422527,887.21697 C 70.273867,881.46757 67.358719,872.43273 64.747449,869.32264 C 39.557561,898.89831 25.446461,857.48029 42.741986,850.62895 C 83.523347,834.47408 116.83088,917.11359 29.835275,1027.4249 z"
       id="path5064"
       style="fill:#000000;fill-opacity:1;fill-rule:evenodd;stroke:none;stroke-width:1px;stroke-linecap:butt;stroke-linejoin:miter;stroke-opacity:1" />
  </g>
</svg>

<?xml version="1.0" encoding="UTF-8"?>
<svg version="1.0" viewBox="0 0 244.95 286.92" xmlns="http://www.w3.org/2000/svg" xmlns:cc="http://creativecommons.org/ns#" xmlns:dc="http://purl.org/dc/elements/1.1/" xmlns:rdf="http://www.w3.org/1999/02/22-rdf-syntax-ns#">
<metadata>
<rdf:RDF>
<cc:Work rdf:about="">
<dc:format>image/svg+xml</dc:format>
<dc:type rdf:resource="http://purl.org/dc/dcmitype/StillImage"/>
</cc:Work>
</rdf:RDF>
</metadata>
<g transform="translate(0 -790.07)" fill-rule="evenodd">
<path d="m1 791.07 4.4172 185.53c3.1552 132.52 230.96 132.52 234.11 0l4.4172-185.53h-242.95z" fill="#fff" stroke="#000" stroke-width="2"/>
<path d="m29.835 1027.4c27.023-12.203 55.681-16.86 91.27 10.474 26.407-19.597 55.83-27.346 91.52-10.474-72.728-92.242-58.695-190.58-13.938-177.4 22.099 6.5125 4.9316 49.855-20.475 19.293-4.1653 5.047-4.6556 10.519-1.0278 16.313 3.7569 5.9998 9.1437 3.6216 12.176 5.4132s3.1347 5.8483 11.197 5.9547c8.2383 0.10867 8.8603-6.6761 12.317-8.2293 3.388-1.5222 5.4713 2.3363 10.912-3.1386 5.5281-5.5628 3.2191-12.045 3.9346-14.627 0.67029-2.4188 4.2263-2.5467 4.7506-9.3124 0.52345-6.7544-4.9389-8.8178-5.8816-11.574-0.88898-2.5993 2.7966-7.7062 0-12.219-2.7488-4.4359-9.5705-5.602-11.97-7.4812-2.2917-1.7948-2.4233-6.0677-9.7381-8.3733-7.3671-2.3221-10.588 1.2162-13.703 1.1415-2.9388-0.07054-7.8955-4.8596-14.967-3.5643-6.9014 1.2641-9.1179 8.6677-11.965 10.443-2.975 1.8555-10.808-0.16068-15.461 5.3401-4.567 5.3987-2.2147 10.631-3.8136 13.582-1.5606 2.8799-6.2252 2.7435-10.632 9.3854-4.354 6.5618 0.35839 14.929-0.76584 19.925s-5.9884 6.9671-6.9219 14.613c-0.93634 7.6694 3.031 12.872 2.9017 16.838-0.135 4.1422-5.8432 8.9967-5.529 19.3 0.31433 10.308 9.7061 15.072 8.728 21.365-0.98255 6.3225-7.7014 13.024-4.5743 23.061 3.0771 9.8769 2.9255 21.585-8.8195 18.859-11.912-2.7651-2.8382-20.696 2.2273-31.022 5.1-10.397-4.2164-26.196-4.5012-32.967s4.3633-14.967 3.7406-21.046c-0.62269-6.079-5.6521-12.508-6.3804-18.441s3.8433-13.662 2.0378-20.844c-1.8165-7.2252-6.9827-6.5536-9.0202-10.535s-1.3183-11.301-5.048-15.576c-3.6545-4.1894-9.7685-3.7753-13.229-6.466-3.352-2.6061-3.6557-8.5126-9.136-11.368-5.6195-2.9278-9.3525 0.43552-13.454 0.14608s-9.5399-4.9216-15.811-2.7431c-6.4285 2.2332-5.7221 6.6419-8.4816 7.9497-2.6164 1.2399-6.8196-3.0715-14.123 1.8917-7.424 5.0448-3.4216 9.9756-5.0782 12.073-1.5912 2.0148-5.7721 1.8143-9.3854 7.9925-3.5676 6.1 1.4036 11.63 2.1647 14.95 0.76893 3.3544-3.7257 9.4148 0 15.461 3.5983 5.8395 9.1146 3.5511 12.311 5.6928s2.3803 5.8802 9.8591 8.4484c7.3722 2.5316 11.117-3.0589 14.476-4.4157 3.2072-1.2954 7.9689 1.5374 12.894-4.2998 4.8513-5.7494 1.9362-14.784-0.67508-17.894-25.19 29.576-39.301-11.842-22.005-18.694 40.781-16.155 74.089 66.485-12.907 176.8z"/>
</g>
</svg>
